icons/serverless.svg

<?xml version="1.0" encoding="UTF-8"?>
<svg width="256px" height="204px" viewBox="0 0 256 204" version="1.1" xmlns="http://www.w3.org/2000/svg" xmlns:xlink="http://www.w3.org/1999/xlink" preserveAspectRatio="xMidYMid">
    <g>
        <path d="M0,161.20187 L45.311538,161.20187 L31.2732757,203.597885 L0,203.597885 L0,161.20187 Z M0,80.6009425 L72.0009468,80.6009425 L57.9640432,122.996956 L0,122.996956 L0,80.6009425 Z M0,1.47413815e-05 L98.6917145,1.47413815e-05 L84.6520934,42.39467 L0,42.39467 L0,1.47413815e-05 Z M143.348822,1.47413815e-05 L256,1.47413815e-05 L256,42.39467 L129.311918,42.39467 L143.348822,1.47413815e-05 Z M116.660364,80.6009425 L255.999593,80.6009425 L255.999593,122.996956 L102.622101,122.996956 L116.660364,80.6009425 Z M89.9706833,161.20187 L255.999321,161.20187 L255.999321,203.597885 L75.9337796,203.597885 L89.9706833,161.20187 Z" fill="#F26D61" fill-rule="nonzero"></path>
    </g>
</svg>

<svg xmlns="http://www.w3.org/2000/svg" viewBox="0 0 256 203.598">
  <path fill="#f26d61" d="M0 161.202h45.312l-14.039 42.396H0zM0 80.6h72l-14.036 42.396H0zM0 0h98.692l-14.04 42.395H0zm143.349 0L256 42.395H129.312zM116.66 80.6H256v42.397H102.622zm-26.69 80.602H256v42.396H75.933z"/>
</svg>
